!!!CDT:
!!!PTL: Madrigali a sei voci. Libro secondo
!!!PPP: Venice
!!!PPR: Amadino
!!!PDT: 1601
!!!RISM: 1601-14
!!!rime: 1022
!!!AGN: Madrigal
!!!SCT: Trm1022c
!!!SCA: Trm1022c
!!!voices:
!!!COM: Il Verso, Antonio
!!!OTL: Voi sete bella, ma fugace e presta 
**kern	**text	**kern	**text	**kern	**text	**kern	**text	**kern	**text
*part5	*part5	*part4	*part4	*part3	*part3	*part2	*part2	*part1	*part1
*staff5	*staff5	*staff4	*staff4	*staff3	*staff3	*staff2	*staff2	*staff1	*staff1
*I"Basso	*	*I"Tenore	*	*I"Quinto	*	*I"Alto	*	*I"Sesto	*
*I'B	*	*I'T	*	*I'V	*	*I'A	*	*I'VI	*
*oclefF4	*	*oclefC4	*	*oclefC3	*	*oclefC3	*	*oclefC1	*
*clefF4	*	*clefGv2	*	*clefGv2	*	*clefGv2	*	*clefG2	*
*k[]	*	*k[]	*	*k[]	*	*k[]	*	*k[]	*
*C:	*	*C:	*	*C:	*	*C:	*	*C:	*
*omet(C)	*	*omet(C)	*	*omet(C)	*	*omet(C)	*	*omet(C)	*
*M4/2	*	*M4/2	*	*M4/2	*	*M4/2	*	*M4/2	*
=1	=1	=1	=1	=1	=1	=1	=1	=1	=1
0r	.	2r	.	0r	.	2r	.	2c	Voi
.	.	2A	Voi	.	.	4r	.	4.e	se-
.	.	.	.	.	.	4c	Voi	.	.
.	.	.	.	.	.	.	.	8f	-te
.	.	4G	se-	.	.	4B	se-	4g	bel-
.	.	4E	-te	.	.	4c	-te	4g	-la,
.	.	2F	bel-	.	.	4.A	bel-	4.a	ma
.	.	.	.	.	.	8A	-la,	8f	fu-
=2	=2	=2	=2	=2	=2	=2	=2	=2	=2
0r	.	2E	-la,	1r	.	8e	ma	4g	-ga-
.	.	.	.	.	.	8f	fu-	.	.
.	.	.	.	.	.	8g	-ga-	4g	-ce e
.	.	.	.	.	.	8e	-ce e	.	.
.	.	2r	.	.	.	4f	pre-	4a	pre-
.	.	.	.	.	.	4e	-sta,	4g#X	-sta,
.	.	8A	ma	2r	.	1r	.	2r	.
.	.	8B	fu-	.	.	.	.	.	.
.	.	8c	-ga-	.	.	.	.	.	.
.	.	8d	-ce e	.	.	.	.	.	.
.	.	4e	pre-	8c	ma	.	.	8e	ma
.	.	.	.	8d	fu-	.	.	8f	fu-
.	.	4c	-sta,	8e	-ga-	.	.	8gnXi	-ga-
.	.	.	.	8c	-ce e	.	.	8e	-ce e
=3	=3	=3	=3	=3	=3	=3	=3	=3	=3
4r	.	0r	.	4d	pre-	4r	.	4f	pre-
4F	Voi	.	.	4A	-sta,	4A	Voi	4c	-sta,
4E	se-	.	.	4e	Voi	4B	se-	2r	.
4F	-te	.	.	8c	se-	4A	-te	.	.
.	.	.	.	8c	-te	.	.	.	.
4.D	bel-	.	.	8d	bel-	4.d	bel-	2r	.
.	.	.	.	8e	-la,	.	.	.	.
.	.	.	.	2f	ma	.	.	.	.
8D	-la,	.	.	.	.	8d	-la,	.	.
8F	ma	.	.	.	.	4.c	ma	4r	.
8G	fu-	.	.	.	.	.	.	.	.
8A	-ga-	.	.	4c	fu-	.	.	4a	Voi
8F	-ce e	.	.	.	.	8f	fu-	.	.
=4	=4	=4	=4	=4	=4	=4	=4	=4	=4
4G	pre-	2r	.	4B	-ga-	8d	-ga-	4g	se-
.	.	.	.	.	.	8d	-ce e	.	.
4C	-sta,	.	.	4c	-ce,	4.e	pre-	4e	-te
2r	.	4r	.	4A	ma	.	.	2f	bel-
.	.	.	.	.	.	16dL	.	.	.
.	.	.	.	.	.	16cJ	.	.	.
.	.	4d	Voi	4B	fu-	4d	.	.	.
1r	.	8c	se-	4.c	-ga-	2e	.	2e	-la,
.	.	8B	-te	.	.	.	.	.	.
.	.	8A	bel-	.	.	.	.	.	.
.	.	8B	-la,	8B	-ce e	.	.	.	.
.	.	4c	ma	4A	pre-	2e	-sta,	8a	ma
.	.	.	.	.	.	.	.	8b	fu-
.	.	4c	fu-	4A	-sta,	.	.	8cc	-ga-
.	.	.	.	.	.	.	.	8a	-ce e
=5	=5	=5	=5	=5	=5	=5	=5	=5	=5
2r	.	4A	-ga-	4.e	ma	1r	.	4cc	pre-
.	.	4E	-ce,	.	.	.	.	4b	-sta,
.	.	.	.	8f	fu-	.	.	.	.
2C	Voi	2r	.	8gL	-ga-	.	.	2r	.
.	.	.	.	8eJ	.	.	.	.	.
.	.	.	.	2g	.	.	.	.	.
4.E	se-	4r	.	.	.	4r	.	1r	.
.	.	4e	Voi	4g	-ce e	4G	Voi	.	.
8F	-te	.	.	.	.	.	.	.	.
4.G	bel-	4d	se-	4.g	pre-	4B	se-	.	.
.	.	4B	-te	.	.	4G	-te	.	.
8G	-la,	.	.	8f	.	.	.	.	.
=6	=6	=6	=6	=6	=6	=6	=6	=6	=6
8C	ma	4.c	bel-	2e	.	4g	bel-	2r	.
8D	fu-	.	.	.	.	.	.	.	.
8E	-ga-	.	.	.	.	4g	-la,	.	.
8C	-ce e	8c	-la,	.	.	.	.	.	.
2F	pre-	8A	ma	2c	-sta,	2r	.	4r	.
.	.	8B	fu-	.	.	.	.	.	.
.	.	2c	-ga-	.	.	.	.	4a	Voi
2E	-sta,	.	.	1r	.	2r	.	4g	se-
.	.	4B	-ce e	.	.	.	.	4e	-te
4r	.	4A	pre-	.	.	4r	.	8a	bel-
.	.	.	.	.	.	.	.	8b	-la,
4A	Voi	4A	-sta,	.	.	4c	Voi	8cc	ma
.	.	.	.	.	.	.	.	8a	fu-
=7	=7	=7	=7	=7	=7	=7	=7	=7	=7
4G	se-	4r	.	4r	.	4d	se-	4b	-ga-
4E	-te	4G	Voi	4g	Voi	4e	-te	4cc	-ce e
8F	bel-	4A	se-	4f	se-	8c	bel-	4a	pre-
8D	-la,	.	.	.	.	8d	-la,	.	.
8F	ma	4A	-te	4f	-te	8A	ma	4a	-sta,
8G	fu-	.	.	.	.	8B	fu-	.	.
4A	-ga-	4A	bel-	4e	bel-	8cL	-ga-	4r	.
.	.	.	.	.	.	8dJ	.	.	.
4AA	-ce e	4A	-la,	4e	-la,	2e	.	8a	ma
.	.	.	.	.	.	.	.	8b	fu-
8AAL	pre-	4.E	ma	4r	.	.	.	8cc	-ga-
8BB	.	.	.	.	.	.	.	8dd	-ce e
8C	.	.	.	[4G	ma	4e	-ce,	[4ee	pre-
8DJ	.	8F	fu-	.	.	.	.	.	.
=8	=8	=8	=8	=8	=8	=8	=8	=8	=8
1E	.	8G	-ga-	4G]	.	8e	ma	4ee]	.
.	.	8E	-ce e	.	.	8e	fu-	.	.
.	.	2e	pre-	4A	fu-	8c	-ga-	4ee	.
.	.	.	.	.	.	8c	-ce e	.	.
.	.	.	.	8B	-ga-	2B	pre-	2ee	.
.	.	.	.	8E	-ce e	.	.	.	.
.	.	4e	-sta	2e	pre-	.	.	.	.
1AA	-sta	4r	.	.	.	4A	-sta	1cc#X	-sta
.	.	2E	Co-	4e	-sta	4e	Co-	.	.
.	.	.	.	2r	.	4e	-me	.	.
.	.	[4A	-me	.	.	4e	Cer-	.	.
=9	=9	=9	=9	=9	=9	=9	=9	=9	=9
0r	.	4A]	.	4r	.	4.a	-vet-	1r	.
.	.	4A	Cer-	4e	Co-	.	.	.	.
.	.	.	.	.	.	16gL	.	.	.
.	.	.	.	.	.	16fJ	.	.	.
.	.	8cL	-vet-	4e	-me	8eL	.	.	.
.	.	8B	.	.	.	8d	.	.	.
.	.	8A	.	4a	Cer-	8c	.	.	.
.	.	8BJ	.	.	.	8dJ	.	.	.
.	.	8cL	.	4.g	-vet-	8eL	.	4r	.
.	.	8dJ	.	.	.	8fJ	.	.	.
.	.	2e	.	.	.	2g	.	4ee	Co-
.	.	.	.	8f	.	.	.	.	.
.	.	.	.	8eL	.	.	.	4ee	-me
.	.	.	.	8fJ	.	.	.	.	.
.	.	4B	-ta	[4g	.	4g	-ta	4dd	Cer-
=10	=10	=10	=10	=10	=10	=10	=10	=10	=10
1r	.	2d	suo-	4g]	.	2a	suo-	8ddL	-vet-
.	.	.	.	.	.	.	.	8eeJ	.
.	.	.	.	4f	-ta	.	.	2dd	.
.	.	2A	-le,	2e	suo-	2a	-le	.	.
.	.	.	.	.	.	.	.	4cc#X	-ta
4r	.	4r	.	4d	-le,	4a	Che	2dd	suo-
4D	Co-	4d	Co-	4f	Co-	4.A	fug-	.	.
4D	-me	4d	-me	4f	-me	.	.	2a	-le
.	.	.	.	.	.	8G	-ge	.	.
4D	Cer-	4d	Cer-	4f	Cer-	8F	per	.	.
.	.	.	.	.	.	8G	le	.	.
=11	=11	=11	=11	=11	=11	=11	=11	=11	=11
8FL	-vet-	4c	-vet-	4f	-vet-	4A	sel-	0r	.
8E	.	.	.	.	.	.	.	.	.
8D	.	4f	-ta	4f	-ta	4F	-ve om-	.	.
8EJ	.	.	.	.	.	.	.	.	.
8FL	.	8cL	suo-	4r	.	4.A	-bro-	.	.
8GJ	.	8B	.	.	.	.	.	.	.
2A	.	8c	.	4.e	suo-	.	.	.	.
.	.	8dJ	.	.	.	8B	.	.	.
.	.	8eL	.	.	.	8cL	.	.	.
.	.	8cJ	.	8f	.	8A	.	.	.
4G	-ta	2d	.	2g	.	8B	.	.	.
.	.	.	.	.	.	8cJ	.	.	.
2D	suo-	.	.	.	.	[2d	.	.	.
.	.	4A	-le	8fL	.	.	.	.	.
.	.	.	.	8eJ	.	.	.	.	.
=12	=12	=12	=12	=12	=12	=12	=12	=12	=12
2D	-le	2r	.	2f	.	4d]	.	4a	Che
.	.	.	.	.	.	4A	.	8a	fug-
.	.	.	.	.	.	.	.	8b	-ge
4E	Che	4r	.	2e	-le	4G	-se e	8cc	per
.	.	.	.	.	.	.	.	8b	le
4.AA	fug-	4A	Che	.	.	2A	so-	2ee	sel-
.	.	4.E	fug-	4r	.	.	.	.	.
8BB	-ge	.	.	.	.	.	.	.	.
8C	per	.	.	2e	Che	4A	-le,	4a	-ve,
8AA	le	8F	-ge	.	.	.	.	.	.
4E	sel-	8G	per	.	.	2r	.	4r	.
.	.	8E	le	.	.	.	.	.	.
4F	-ve om-	[4A	sel-	8c	fug-	.	.	4a	Che
.	.	.	.	8d	-ge	.	.	.	.
=13	=13	=13	=13	=13	=13	=13	=13	=13	=13
4D#X	-bro-	4A]	.	4B	per	0r	.	4.b	fug-
4E	-se e	4G#X	-ve om-	4B	le	.	.	.	.
.	.	.	.	.	.	.	.	8b	-ge
4AA	so-	4A	-bro-	8AL	sel-	.	.	8cc	per
.	.	.	.	8BJ	.	.	.	8dd	le
4AA	-le,	4E	-se e	2c	.	.	.	2ee	sel-
1r	.	2e	so-	.	.	.	.	.	.
.	.	.	.	4A	-ve om-	.	.	4cc	-ve om-
.	.	4d	-le,	4f	-bro-	.	.	[2dd	-bro-
.	.	4B	Che	4d	-se e	.	.	.	.
=14	=14	=14	=14	=14	=14	=14	=14	=14	=14
0r	.	8d	fug-	2f	so-	4r	.	4dd]	.
.	.	8D	-ge	.	.	.	.	.	.
.	.	8F	per	.	.	4A	e	4a	-se e
.	.	8GnXi	le	.	.	.	.	.	.
.	.	4A	sel-	4e	-le,	8AL	so-	4a	so-
.	.	.	.	.	.	8B	.	.	.
.	.	4F	-ve om-	4A	om-	8c	.	4a	-le,
.	.	.	.	.	.	8dJ	.	.	.
.	.	4E	-bro-	4B	-bro-	4e	.	4r	.
.	.	4D	-se e	4d	-se e	4A	-le,	4f	om-
.	.	2E	so-	2B	so-	2r	.	4e	-bro-
.	.	.	.	.	.	.	.	4e	-se e
=15	=15	=15	=15	=15	=15	=15	=15	=15	=15
2r	.	1A	-le,	8A	-le,	2r	.	2.e	so-
.	.	.	.	8A	Che	.	.	.	.
.	.	.	.	8c	fug-	.	.	.	.
.	.	.	.	8c	-ge	.	.	.	.
4A	Che	.	.	8c	per	4r	.	.	.
.	.	.	.	8A	le	.	.	.	.
4.D	fug-	.	.	2d	sel-	4a	Che	4f	-le,
.	.	1r	.	.	.	4.A	fug-	2r	.
8E	-ge	.	.	.	.	.	.	.	.
8F	per	.	.	4d	-ve om-	.	.	.	.
8D	le	.	.	.	.	8B	-ge	.	.
4A	sel-	.	.	4e	-bro-	8c	per	4r	.
.	.	.	.	.	.	8A	le	.	.
4B-X	-ve om-	.	.	4d	-se,	[4d	sel-	4g	Che
=16	=16	=16	=16	=16	=16	=16	=16	=16	=16
4G#X	-bro-	0r	.	4r	.	4d]	.	4.e	fug-
4A	-se e	.	.	4a	Che	4c#X	-ve om-	.	.
.	.	.	.	.	.	.	.	8e	-ge
8DL	so-	.	.	8a	fug-	4d	-bro-	8f	per
8E	.	.	.	8g	-ge	.	.	8g	le
8F	.	.	.	8f	per	4d	-se e	8a	sel-
8DJ	.	.	.	8f	le	.	.	8f	-ve om-
4E	.	.	.	4e	sel-	4B	so-	8g	-bro-
.	.	.	.	.	.	.	.	8e	-se e
4AA	-le,	.	.	4e	-ve om-	4A	.	2a	so-
2r	.	.	.	4d	-bro-	2B	.	.	.
.	.	.	.	4d	-se e	.	.	4g#X	.
=17	=17	=17	=17	=17	=17	=17	=17	=17	=17
0r	.	4r	.	4f	so-	2A	-le,	8aL	.
.	.	.	.	.	.	.	.	8b	.
.	.	4A	Che	4e	-le,	.	.	8cc	.
.	.	.	.	.	.	.	.	8aJ	.
.	.	8E	fug-	4r	.	2r	.	2b	.
.	.	8F	-ge	.	.	.	.	.	.
.	.	8G	per	4g	le	.	.	.	.
.	.	8E	le	.	.	.	.	.	.
.	.	8F	sel-	4f	sel-	4d	Che	4a	-le,
.	.	8D	-ve om-	.	.	.	.	.	.
.	.	8F	-bro-	4f	-ve om-	8A	fug-	4a	e
.	.	8G	-se e	.	.	8B	-ge	.	.
.	.	[2A	so-	4e	-bro-	8cnXi	per	2a	so-
.	.	.	.	.	.	8A	le	.	.
.	.	.	.	4f	-se e	[4d	sel-	.	.
=18	=18	=18	=18	=18	=18	=18	=18	=18	=18
0r	.	2A]	.	2e	so-	4d]	.	2.a	-le
.	.	.	.	.	.	4c#X	-ve om-	.	.
.	.	2D	-le	2f#X	-le	4d	-bro-	.	.
.	.	.	.	.	.	4d	-se e	4dd	E
.	.	1r	.	4r	.	4e	so-	4b	cer-
.	.	.	.	4a	E	4A	-le, om-	4cc	-ca
.	.	.	.	4fnXi	cer-	4B-X	-bro-	4dd	fiu-
.	.	.	.	4d	-ca	4B-X	-se e	4dd	-me o
=19	=19	=19	=19	=19	=19	=19	=19	=19	=19
4r	.	0r	.	4e	fiu-	2A	so-	4cc	ri-
4A	E	.	.	4e	-me o	.	.	4a	-o,
4G#X	cer-	.	.	2e	ri-	4E	-le	2r	.
4A	-ca	.	.	.	.	4e	E	.	.
8DL	fiu-	.	.	4d	-o,	4f	cer-	4r	.
8E	.	.	.	.	.	.	.	.	.
8F	.	.	.	2A	fiu-	4f	-ca	4a	E
8GnXiJ	.	.	.	.	.	.	.	.	.
4A	.	.	.	.	.	4.e	fiu-	4a	cer-
4E	-me o	.	.	4e	-me o	.	.	4g#X	-ca
.	.	.	.	.	.	8d	.	.	.
=20	=20	=20	=20	=20	=20	=20	=20	=20	=20
2F	ri-	4r	.	4A	ri-	4c	.	8aL	fiu-
.	.	.	.	.	.	.	.	8b	.
.	.	4A	E	4A	-o,	4A	-me o	8cc	.
.	.	.	.	.	.	.	.	8aJ	.
4E	-o,	4G#X	cer-	2r	.	2e	ri-	4b	.
4AA	o	4A	-ca	.	.	.	.	4cc	-me o
2A	ri-	8DL	fiu-	2r	.	2f	.	2dd	ri-
.	.	8E	.	.	.	.	.	.	.
.	.	8F	.	.	.	.	.	.	.
.	.	8GnXiJ	.	.	.	.	.	.	.
2A	-o,	8AL	.	4r	.	2e	-o,	4cc	-o,
.	.	8BJ	.	.	.	.	.	.	.
.	.	[4c	.	8cL	fiu-	.	.	4a	o
.	.	.	.	8dJ	.	.	.	.	.
=21	=21	=21	=21	=21	=21	=21	=21	=21	=21
0r	.	4c]	.	8eL	.	2r	.	1g	ri-
.	.	.	.	8f	.	.	.	.	.
.	.	4B	-me o	8g	.	.	.	.	.
.	.	.	.	8dJ	.	.	.	.	.
.	.	4c	ri-	4.e	.	4r	.	.	.
.	.	4C	-o,	.	.	4.g	Tal	.	.
.	.	.	.	8c	-me o	.	.	.	.
.	.	4G	Tal	2d	ri-	.	.	2g	-o,
.	.	.	.	.	.	8f	che	.	.
.	.	8G	che	.	.	4d	vi	.	.
.	.	8F	vi	.	.	.	.	.	.
.	.	4E	se-	4c	-o,	4e	se-	2r	.
.	.	4A	-guo in-	4c	Tal	4c	-guo in-	.	.
=22	=22	=22	=22	=22	=22	=22	=22	=22	=22
0r	.	4G	-dar-	4B	che	4.g	-dar-	4r	.
.	.	4C	-no,	4G	vi	.	.	4.cc	Tal
.	.	.	.	.	.	8g	-no e	.	.
.	.	2r	.	4G	se-	4g	vi	.	.
.	.	.	.	.	.	.	.	8b	che
.	.	.	.	4g	-guo in-	4G	de-	4dd	vi
.	.	4r	.	4e	-dar-	4.c	-si-	4ee	se-
.	.	4.A	Tal	4e	-no,	.	.	4cc	-guo in-
.	.	.	.	.	.	8d	.	.	.
.	.	.	.	2r	.	2e	.	2b	-dar-
.	.	8G	che	.	.	.	.	.	.
.	.	4E	vi	.	.	.	.	.	.
=23	=23	=23	=23	=23	=23	=23	=23	=23	=23
4r	.	4F	se-	4r	.	2A	-o,	2a	-no
4.D	Tal	4D	-guo in-	4.e	Tal	.	.	.	.
.	.	4.A	-dar-	.	.	2r	.	2r	.
8C	che	.	.	8d	che	.	.	.	.
4AA	vi	.	.	4c	vi	.	.	.	.
.	.	8G	.	.	.	.	.	.	.
4BB-X	se-	8FL	.	4d	se-	1r	.	2r	.
.	.	8DJ	.	.	.	.	.	.	.
4GG	-guo in-	2d	.	4g	-guo in-	.	.	.	.
2D	-dar-	.	.	2f	-dar-	.	.	4r	.
.	.	4A	-no e	.	.	.	.	4dd	e
=24	=24	=24	=24	=24	=24	=24	=24	=24	=24
2AA	-no,	4.c	vi	2e	-no,	2r	.	4cc	vi
.	.	.	.	.	.	.	.	4cc	de-
.	.	8d	de-	.	.	.	.	.	.
2r	.	4e	-si-	2r	.	4r	.	2b	-si-
.	.	4E	-o,	.	.	4.e	Tal	.	.
2r	.	4A	Tal	4r	.	.	.	2a	-o,
.	.	.	.	.	.	8d	che	.	.
.	.	8A	che	4.c	Tal	4c	vi	.	.
.	.	8G	vi	.	.	.	.	.	.
4r	.	4F	se-	.	.	8AL	se-	4r	.
.	.	.	.	8d	che	8B	.	.	.
[4A	Tal	4A	-guo in-	4e	vi	8c	.	[4cc	Tal
.	.	.	.	.	.	8dJ	.	.	.
=25	=25	=25	=25	=25	=25	=25	=25	=25	=25
8A]	.	4E	-dar-	4e	se-	4.e	.	8cc]	.
8G	che	.	.	.	.	.	.	8b	che
4E	vi	4E	-no	4e	-guo in-	.	.	4g	vi
.	.	.	.	.	.	8d	-guo in-	.	.
4F	se-	2r	.	4A	-dar-	4c	-dar-	4a	se-
4D	-guo in-	.	.	4A	-no,	4d	-no e	4f	-guo in-
4E	-dar-	2r	.	1r	.	4B	vi	4e	-dar-
4E	-no e	.	.	.	.	4B	de-	4g	-no e
4D	vi	4A	e	.	.	2d	-si-	4a	vi
4BB	de-	8G	vi	.	.	.	.	4dd	de-
.	.	8F	de-	.	.	.	.	.	.
=26	=26	=26	=26	=26	=26	=26	=26	=26	=26
4C	-si-	8EL	-si-	4r	.	2e	-o,	2cc	-si-
.	.	8D	.	.	.	.	.	.	.
4AA	-o,	8C	.	4.e	<Tal	.	.	.	.
.	.	8DJ	.	.	.	.	.	.	.
2r	.	2E	.	.	.	2r	.	4b	-o,
.	.	.	.	8d	che	.	.	.	.
.	.	.	.	4B	vi	.	.	4.ee	Tal
4r	.	1A	-o,	4.c	se-	4r	.	.	.
.	.	.	.	.	.	.	.	8dd	che
4.AA	Tal	.	.	.	.	4.c	Tal	4cc	vi
.	.	.	.	8B	-guo in-	.	.	.	.
.	.	.	.	4A	-dar-	.	.	4ee	se-
8BB	che	.	.	.	.	8d	che	.	.
4C	vi	.	.	4E	-no>	4e	vi	4ee	-guo in-
=27	=27	=27	=27	=27	=27	=27	=27	=27	=27
4D	se-	4r	.	4r	.	4f	se-	4dd	-dar-
2F	-guo in-	4.A	Tal	4.c	e	2a	-guo in-	4cc	-no,
.	.	.	.	.	.	.	.	4r	.
.	.	8B	che	8d	vi	.	.	.	.
2C	-dar-	4c	vi	4e	de-	2g	-dar-	4.e	Tal
.	.	4G	se-	2.c	-si-	.	.	.	.
.	.	.	.	.	.	.	.	8f	che
4C	-no e	4C	-guo in-	.	.	4e	-no,	4g	vi
4AA	vi	4C	-dar-	.	.	4r	.	4a	se-
4GG	de-	4D	-no e	4B	-o,	4d	in-	4b	-guo in-
=28	=28	=28	=28	=28	=28	=28	=28	=28	=28
2FF	-si-	2A	vi	2r	.	2.f	-dar-	2cc	-dar-
2FF	-o,	2A	de-	4r	.	.	.	2a	-no
.	.	.	.	4c	e	4c	-no e	.	.
2r	.	4G	-si-	4g	vi	4.d	vi	1r	.
.	.	4D	-o,	4f	de-	.	.	.	.
.	.	.	.	.	.	8c	de-	.	.
4.E	Tal	4r	.	2e	-si-	4B	-si-	.	.
.	.	[4E	Tal	.	.	4B	-o,	.	.
8D	che	.	.	.	.	.	.	.	.
=29	=29	=29	=29	=29	=29	=29	=29	=29	=29
4C#X	vi	8E]	.	4e	-o,	4.A	Tal	4r	.
.	.	8E	che	.	.	.	.	.	.
8D	se-	4F	vi	4d	e	.	.	4.a	e
8D	-guo in-	.	.	.	.	8B	che	.	.
4.AA	-dar-	8A	se-	4.c	vi	4c	vi	.	.
.	.	8B	-guo in-	.	.	.	.	8g	vi
.	.	4.c	-dar-	.	.	4.e	se-	2e	de-
8BB	-no e	.	.	8d	de-	.	.	.	.
4CnXi	vi	.	.	1e	-si-	.	.	.	.
.	.	8d	-no e	.	.	8d	-guo in-	.	.
4AA	de-	4.e	vi	.	.	8c	-dar-	4.a	-si-
.	.	.	.	.	.	8c	-no e	.	.
2E	-si-	.	.	.	.	8B	vi	.	.
.	.	8e	de-	.	.	8A	de-	16g#XL	.
.	.	.	.	.	.	.	.	16f#XJ	.
.	.	4E	-si-	.	.	4B	-si-	4g#X	.
=30	=30	=30	=30	=30	=30	=30	=30	=30	=30
0AAl	-o.	0El	-o.	0el	-o.	0Al	-o.	0al	-o.
==	==	==	==	==	==	==	==	==	==
*-	*-	*-	*-	*-	*-	*-	*-	*-	*-
!!!system-decoration: [*]
!!!RDF**kern: i = editorial accidental
!!!RDF**kern: l = terminal long
!!!ENC: Emiliano Ricciardi
!!!END:
!!!EED: Ricciardi, Emiliano
!!!EEV: 2020/07/23
!!!YEC: Copyright 2018 Emiliano Ricciardi, All Rights Reserved
!!!ONB: Translated from MusicXML on 2020/07/23
!!@@BEGIN:	VERSEDATA
!!@SOLERTI:	1022
!!@CATALOGNUM:	Trm1022
!!@LAST_MODIFIED: 2020/07/12
!!@TITLE:		Voi sete bella, ma fugage e presta
!!@GENRE:		canzonetta
!!@MANUSRC:	E<sub>1</sub>, F<sub>2</sub>, V<sub>13/E1</sub>
!!@PRINTSRC:	27, 48, 70, 141, 145, 166, 169
!!@@BEGIN:	VERSES
!!@ABOUTIT:	Sovra la nana [Isabella] de la serenissima signora [Margherita d'Este] duchessa di Ferrara, bellissima di corpo e di mirabile ingegno.
!!@ABOUTEN:	About the dwarf [Isabella] of the most serene lady [Margherita d'Este] duchess of Ferrara, [who had] a most beautiful body and admirable ingenuity.
!!@EDITOR:	Solerti, Angelo
!!@EDITION_TITLE: Le Rime di Torquato Tasso
!!@EDITION_LOC:	Bologna
!!@EDITION_PUB:	Romagnoli-Dall’Acqua
!!@EDITION_DATE:  1898-1902
!!@EDITION_VOL:	4
!!@EDITION_PAGE:  69
!!@TRANSLATOR:	Emiliano Ricciardi and Amyrose McCue Gill
!!@VERSE:
!!	Voi s&ecirc;te bella, ma fugace e presta
!!	Come cervetta suole
!!	Che fugge per le selve oscure e sole
!!	E cerca fiume o rio,
!!	Talché vi seguo indarno e vi desio.
!!@VERSE:
!!	Voi s&ecirc;te bella, ma sì dura e fredda
!!	Come gelata fonte
!!	In orrid'alpe o bel cristallo in monte;
!!	Né vi riscalda il foco
!!	De' miei sospiri, e sono acceso e roco.
!!@VERSE:
!!	Voi s&ecirc;te bella, ma fallace e ria
!!	Come scoglio tra l'onde
!!	O lento visco fra le verdi fronde,
!!	O 'n mezzo l'erba il laccio,
!!	Soave mio ritegno e caro impaccio.
!!@VERSE:
!!	Voi s&ecirc;te bella, ma sdegnosa e schiva
!!	Come Dafne e Siringa
!!	O s'altra ninfa in bosco è più solinga,
!!	O come lei ch'Orfeo
!!	Fuggì sotterra o sotto al mare Alfeo.
!!@TVERSE:
!!	You are beautiful, but fleeting and fast
!!	Like a young doe
!!	That flees through lonely and dark forests
!!	And searches for a stream or a river,
!!	Such that I follow you in vain and I desire you.
!!@TVERSE:
!!	You are beautiful, but as hard and cold
!!	As a frozen spring
!!	In an alpine gorge or [as] a beautiful crystal in a mountain;
!!	Nor does the fire of my sighs
!!	Warm you, and I am on fire and hoarse.
!!@TVERSE:
!!	You are beautiful, but deceptive and mean
!!	Like a rock among the waves,
!!	Or thick birdlime among leafy branches,
!!	Or a snare in the midst of the grass,
!!	My pleasing restraint and dear hindrance.
!!@TVERSE:
!!	You are beautiful, but scornful and wary
!!	Like Daphne and Syrinx
!!	Or any other more solitary nymph in the wood,
!!	Or like she who escaped Orpheus
!!	Underground or Alpheus under the sea.
!!@@END:		VERSES
!!@OTHER_CRIT_ED:    None
!!@ATTRIBUTION_ABOUT:	Secure
!!	<br>
!!	Among other sources, this sonnet appears in the authoritative manuscript It. 385, Biblioteca Estense Universitaria, Modena, Italy (see Literary Sources).
!!@DATING:	Mid-1580s?
!!@DEDICATEE:	Isabellina
!!@DEDICATEE_INFO:	Margherita Gonzaga's dwarf
!!@COMMENTARY:
!!@@END:		VERSEDATA
!!@@BEGIN:	SETTING
!!@CATALOGNUM:	Trm1022c
!!@RIMETITLE:	Voi sete bella, ma fugage e presta
!!@SOLERTI:	1022
!!@COMPOSER:	Il Verso, Antonio
!!@PRINCEPSTITLE:	Madrigali a sei voci. Libro secondo
!!@PRINCEPSLOC:	Venetia
!!@NORMLOC:	Venice
!!@NORMPUB:	Amadino
!!@NORMPUBSHORT:	Amadino
!!@PRINCEPSPUB:	Amadino
!!@PRINCEPSYEAR:	1601
!!@PRINCEPSRISM:	1601-14
!!@REPRINTS:	
!!@OVOICES:	6
!!@EXTANTVOICES:	5
!!@PARTBOOKS:	
!!@EXTPARTBOOKS:	
!!@OCLEFS:	C1,C3,C3,C4,F4
!!@OMENSURATION:	C
!!@OKEYSIG:	-
!!@FINAL:	A
!!@TIMPEDITOR:	Ricciardi, Emiliano
!!@NOTE:		
!!@@END:		SETTING
